assets/media/img/logo-min.svg

<svg width="100" height="33" viewBox="0 0 100 33" fill="none" xmlns="http://www.w3.org/2000/svg">
<path d="M27.7679 23.1717C26.1024 23.1717 24.7517 22.5768 23.7159 21.3871C23.5737 21.2171 23.5128 21.0259 23.5331 20.8134C23.5534 20.601 23.6448 20.431 23.8073 20.3035C23.9495 20.1548 24.112 20.0911 24.2948 20.1123C24.4979 20.1336 24.6705 20.2292 24.8127 20.3991C25.5236 21.2277 26.5086 21.642 27.7679 21.642C28.9865 21.642 29.9513 21.2277 30.6622 20.3991C31.3934 19.5706 31.7996 18.3914 31.8808 16.8617H28.9221C28.719 16.8617 28.5464 16.798 28.4042 16.6705C28.2824 16.5218 28.2214 16.3412 28.2214 16.1288C28.2214 15.8951 28.2824 15.7145 28.4042 15.587C28.5464 15.4383 28.719 15.3639 28.9221 15.3639H31.8503C31.7082 13.9192 31.2816 12.8145 30.5708 12.0496C29.8802 11.2848 28.9459 10.9024 27.7679 10.9024C26.5086 10.9024 25.5236 11.3273 24.8127 12.1771C24.6705 12.3258 24.4979 12.4108 24.2948 12.4321C24.112 12.4321 23.9495 12.3683 23.8073 12.2408C23.6448 12.0921 23.5534 11.9115 23.5331 11.6991C23.5128 11.4866 23.5737 11.306 23.7159 11.1573C24.7517 9.94632 26.1024 9.34082 27.7679 9.34082C29.474 9.34082 30.8247 9.95694 31.8199 11.1892C32.8354 12.4214 33.3432 14.1104 33.3432 16.2562C33.3432 18.3808 32.8354 20.0698 31.8199 21.3233C30.8247 22.5556 29.474 23.1717 27.7679 23.1717Z" fill="#46403C"/>
<path d="M69.589 23.2034C67.8625 23.2034 66.5017 22.5873 65.5065 21.3551C64.5113 20.1016 64.0137 18.4125 64.0137 16.288C64.0137 14.1422 64.5113 12.4532 65.5065 11.2209C66.5017 9.98868 67.8625 9.37256 69.589 9.37256C71.092 9.37256 72.3512 9.91432 73.3668 10.9978C74.4026 12.0814 74.9612 13.5473 75.0424 15.3957V15.4913C75.0424 15.6825 74.9713 15.8525 74.8291 16.0012C74.7073 16.1499 74.5346 16.2243 74.3112 16.2243H65.476C65.476 17.8602 65.801 19.1774 66.451 20.1759C67.1212 21.1745 68.1672 21.6737 69.589 21.6737C70.3201 21.6737 71.0006 21.5144 71.6302 21.1957C72.2801 20.8558 72.7777 20.4203 73.123 19.8891C73.2449 19.7191 73.3972 19.6129 73.58 19.5704C73.7831 19.5279 73.9659 19.5704 74.1284 19.6979C74.2909 19.8041 74.3925 19.9635 74.4331 20.1759C74.4737 20.3884 74.4331 20.5796 74.3112 20.7496C73.8238 21.4932 73.1535 22.088 72.3004 22.5342C71.4677 22.9803 70.5639 23.2034 69.589 23.2034ZM65.5674 14.7264H73.4582C73.2551 13.5154 72.8082 12.5806 72.1176 11.922C71.4474 11.2634 70.6045 10.9341 69.589 10.9341C68.4922 10.9341 67.5985 11.2634 66.9079 11.922C66.2377 12.5806 65.7909 13.5154 65.5674 14.7264Z" fill="#46403C"/>
<path d="M77.0378 23.1347C76.8956 23.0072 76.8042 22.8372 76.7636 22.6248C76.7433 22.4123 76.8042 22.2317 76.9464 22.083L81.5467 15.6197L77.708 10.457C77.5862 10.2871 77.5354 10.1065 77.5557 9.91527C77.5963 9.70281 77.6877 9.52222 77.8299 9.37351C77.9924 9.26728 78.165 9.22479 78.3478 9.24603C78.5509 9.26728 78.7134 9.36288 78.8353 9.53285L82.4607 14.4087L86.0862 9.53285C86.2081 9.36288 86.3604 9.26728 86.5432 9.24603C86.7463 9.22479 86.9291 9.2779 87.0916 9.40538C87.2541 9.53285 87.3455 9.70281 87.3658 9.91527C87.3861 10.1065 87.3353 10.2871 87.2134 10.457L83.3747 15.6197L88.0056 22.083C88.1071 22.2317 88.1477 22.4123 88.1274 22.6248C88.1071 22.8372 88.0157 23.0072 87.8532 23.1347C87.7111 23.2621 87.5384 23.3046 87.3353 23.2621C87.1322 23.2409 86.9697 23.1559 86.8479 23.0072L82.4607 17.1115L78.0736 23.0072C77.9518 23.1559 77.7893 23.2409 77.5862 23.2621C77.383 23.3046 77.2003 23.2621 77.0378 23.1347Z" fill="#46403C"/>
<path fill-rule="evenodd" clip-rule="evenodd" d="M17.801 9.93031C17.4665 8.81099 15.8813 8.81099 15.5468 9.93032L11.8399 22.3343C11.6986 22.8071 12.0528 23.2825 12.5463 23.2825C12.8721 23.2825 13.1593 23.0686 13.2526 22.7564L16.2982 12.5652C16.2982 12.5651 16.2983 12.565 16.2983 12.5649L16.6739 11.3081L17.0495 12.565C17.0496 12.5651 17.0496 12.5651 17.0496 12.5652L20.0952 22.7564C20.1885 23.0686 20.4757 23.2825 20.8015 23.2825C21.295 23.2825 21.6492 22.8071 21.5079 22.3343L17.801 9.93031Z" fill="#46403C"/>
<rect x="60.7188" y="21.7977" width="1.43075" height="4.23508" rx="0.715376" fill="#46403C"/>
<rect x="35.209" y="21.7977" width="26.9386" height="1.49474" rx="0.747368" fill="#46403C"/>
<rect x="35.209" y="16.3168" width="1.43075" height="6.97543" rx="0.715376" fill="#46403C"/>
<rect x="43.0762" y="14.0746" width="1.43075" height="9.21753" rx="0.715376" fill="#46403C"/>
<rect x="50.9434" y="11.8324" width="1.43075" height="11.4596" rx="0.715376" fill="#46403C"/>
<rect x="59.2871" y="9.34082" width="1.43075" height="13.9509" rx="0.715376" fill="#46403C"/>
<rect x="0.5" y="-0.5" width="99" height="32" rx="16" transform="matrix(1 0 0 -1 0 32)" stroke="#46403C"/>
</svg>

<svg width="100" height="33" fill="none" xmlns="http://www.w3.org/2000/svg"><path d="M27.768 23.172c-1.666 0-3.016-.595-4.052-1.785a.752.752 0 01-.183-.574.706.706 0 01.274-.51.56.56 0 01.488-.19.762.762 0 01.518.286c.71.829 1.696 1.243 2.955 1.243 1.218 0 2.183-.414 2.894-1.243.731-.828 1.138-2.008 1.219-3.537h-2.959a.748.748 0 01-.518-.191.827.827 0 01-.183-.542c0-.234.061-.415.183-.542a.69.69 0 01.518-.223h2.928c-.142-1.445-.568-2.55-1.28-3.314-.69-.765-1.624-1.148-2.802-1.148-1.26 0-2.244.425-2.955 1.275a.813.813 0 01-.518.255.71.71 0 01-.488-.191.819.819 0 01-.274-.542.658.658 0 01.183-.542c1.036-1.21 2.386-1.816 4.052-1.816 1.706 0 3.057.616 4.052 1.848 1.015 1.232 1.523 2.921 1.523 5.067 0 2.125-.508 3.814-1.523 5.067-.995 1.233-2.346 1.849-4.052 1.849zm41.821.031c-1.727 0-3.087-.616-4.082-1.848-.996-1.253-1.493-2.942-1.493-5.067 0-2.146.497-3.835 1.493-5.067.995-1.232 2.355-1.848 4.082-1.848 1.503 0 2.762.541 3.778 1.625 1.036 1.083 1.594 2.55 1.675 4.398v.095a.717.717 0 01-.213.51c-.122.149-.294.223-.518.223h-8.835c0 1.636.325 2.953.975 3.952.67.998 1.716 1.498 3.138 1.498.731 0 1.412-.16 2.041-.478.65-.34 1.148-.776 1.493-1.307a.768.768 0 01.457-.319.637.637 0 01.548.128.7.7 0 01.305.478c.04.212 0 .404-.122.574-.487.743-1.158 1.338-2.01 1.784a5.652 5.652 0 01-2.712.67zm-4.022-8.477h7.891c-.203-1.21-.65-2.145-1.34-2.804-.67-.659-1.513-.988-2.529-.988-1.097 0-1.99.33-2.681.988-.67.659-1.117 1.593-1.34 2.804zm11.471 8.409a.885.885 0 01-.274-.51.658.658 0 01.182-.542l4.6-6.463-3.838-5.163a.767.767 0 01-.152-.542c.04-.212.132-.393.274-.541a.761.761 0 01.518-.128.661.661 0 01.487.287l3.626 4.876 3.625-4.876a.642.642 0 01.457-.287.734.734 0 01.549.16.706.706 0 01.274.51.766.766 0 01-.153.541l-3.838 5.163 4.63 6.463c.102.149.143.33.122.542a.706.706 0 01-.274.51.561.561 0 01-.518.127.697.697 0 01-.487-.255l-4.387-5.896-4.387 5.896a.697.697 0 01-.488.255.638.638 0 01-.548-.127z" fill="#46403C"/><path fill-rule="evenodd" clip-rule="evenodd" d="M17.801 9.93c-.334-1.119-1.92-1.119-2.254 0L11.84 22.334a.737.737 0 001.413.422l3.045-10.19v-.001l.376-1.257.375 1.257 3.046 10.191a.737.737 0 001.413-.422L17.8 9.93z" fill="#46403C"/><rect x="60.719" y="21.798" width="1.431" height="4.235" rx=".715" fill="#46403C"/><rect x="35.209" y="21.798" width="26.939" height="1.495" rx=".747" fill="#46403C"/><rect x="35.209" y="16.317" width="1.431" height="6.975" rx=".715" fill="#46403C"/><rect x="43.076" y="14.075" width="1.431" height="9.218" rx=".715" fill="#46403C"/><rect x="50.943" y="11.832" width="1.431" height="11.46" rx=".715" fill="#46403C"/><rect x="59.287" y="9.341" width="1.431" height="13.951" rx=".715" fill="#46403C"/><rect x=".5" y="-.5" width="99" height="32" rx="16" transform="matrix(1 0 0 -1 0 32)" stroke="#46403C"/></svg>
